; generated by PrusaSlicer 2.5.2+win64 on 2023-04-06 at 15:59:31 UTC

; 

; external perimeters extrusion width = 0.45mm
; perimeters extrusion width = 0.45mm
; infill extrusion width = 0.45mm
; solid infill extrusion width = 0.45mm
; top infill extrusion width = 0.40mm
; support material extrusion width = 0.35mm
; first layer extrusion width = 0.42mm

M107
M104 S200 ; set temperature
;TYPE:Custom
G28 ; home all axes
G1 Z5 F5000 ; lift nozzle
M109 S200 ; set temperature and wait for it to be reached
G21 ; set units to millimeters
G90 ; use absolute coordinates
M82 ; use absolute distances for extrusion
G92 E0
; Filament gcode
M107
;LAYER_CHANGE
;Z:0.3
;HEIGHT:0.3
G1 E-2 F3000
G92 E0
G1 Z1 F10800
G1 X63.432 Y38.105
G1 Z.3
G1 E2 F3000
;TYPE:Skirt/Brim
;WIDTH:0.42
G1 F1800
G1 X65.175 Y36.688 E2.09962
G1 X68.25 Y35.894 E2.24048
G1 X131.75 Y35.894 E5.05701
G1 X133.961 Y36.291 E5.15664
G1 X135.895 Y37.432 E5.25626
G1 X137.312 Y39.175 E5.35588
G1 X138.106 Y42.25 E5.49674
G1 X138.106 Y157.75 E10.61972
G1 X137.709 Y159.961 E10.71934
G1 X136.568 Y161.895 E10.81896
G1 X134.825 Y163.312 E10.91858
G1 X131.75 Y164.106 E11.05945
G1 X68.25 Y164.106 E13.87598
G1 X66.039 Y163.709 E13.9756
G1 X64.105 Y162.568 E14.07522
G1 X62.688 Y160.825 E14.17484
G1 X61.894 Y157.75 E14.3157
G1 X61.894 Y42.25 E19.43868
G1 X62.291 Y40.039 E19.53831
G1 X63.402 Y38.156 E19.63526
G1 E17.63526 F3000
G92 E0
G1 Z1.3 F10800
G1 X75.295 Y49.296
G1 Z.3
G1 E2 F3000
;TYPE:Perimeter
;WIDTH:0.467608
G1 F1800
G1 X75.305 Y49.247 E2.00253
;WIDTH:0.515216
G1 X75.344 Y49.057 E2.01344
;WIDTH:0.562825
G1 X75.382 Y48.866 E2.02549
;WIDTH:0.564819
G1 X75.504 Y48.729 E2.03697
G1 X75.721 Y48.668 E2.05103
;WIDTH:0.516546
G1 X75.938 Y48.608 E2.06373
;WIDTH:0.468273
G1 X76.155 Y48.548 E2.07508
;WIDTH:0.42
G1 X123.845 Y48.548 E4.19033
;WIDTH:0.468273
G1 X124.062 Y48.608 E4.20168
;WIDTH:0.516546
G1 X124.279 Y48.668 E4.21438
;WIDTH:0.56482
G1 X124.496 Y48.729 E4.22844
G1 X124.618 Y48.866 E4.23992
;WIDTH:0.562826
G1 X124.656 Y49.057 E4.25197
;WIDTH:0.515217
G1 X124.695 Y49.247 E4.26288
;WIDTH:0.467608
G1 X124.734 Y49.437 E4.27263
;WIDTH:0.42
G1 X124.734 Y64.282 E4.9311
G1 X124.706 Y64.501 E4.94088
G1 X124.539 Y64.837 E4.95755
G1 X124.316 Y65.036 E4.9708
G1 X124.11 Y65.131 E4.98086
G1 X123.845 Y65.171 E4.99276
G1 X119.734 Y65.171 E5.1751
G1 X119.734 Y67.329 E5.2708
G1 X123.845 Y67.329 E5.45314
G1 X124.11 Y67.369 E5.46504
G1 X124.453 Y67.569 E5.48264
G1 X124.629 Y67.8 E5.49551
G1 X124.706 Y67.999 E5.505
G1 X124.734 Y68.218 E5.51478
G1 X124.734 Y115.532 E7.61339
G1 X124.605 Y115.994 E7.63465
G1 X124.464 Y116.17 E7.64467
;WIDTH:0.43509
G1 X124.191 Y116.359 E7.66
;WIDTH:0.451253
G1 X124.001 Y116.423 E7.66969
G1 X124.53 Y116.5 E7.69549
;WIDTH:0.42
G1 X124.728 Y116.609 E7.70551
G1 X125.87 Y117.438 E7.76811
G1 X126.118 Y117.714 E7.78454
G1 X126.193 Y117.883 E7.79275
G1 X126.629 Y119.225 E7.85536
G1 X126.673 Y119.5 E7.8677
G1 X126.629 Y119.775 E7.88004
G1 X126.193 Y121.117 E7.94264
G1 X125.999 Y121.447 E7.95962
G1 X125.87 Y121.562 E7.96727
G1 X124.728 Y122.391 E8.02988
G1 X124.397 Y122.54 E8.046
G1 X122.794 Y122.561 E8.11709
G1 X122.475 Y122.502 E8.13149
G1 X122.272 Y122.391 E8.14176
G1 X121.13 Y121.562 E8.20436
G1 X120.897 Y121.311 E8.21956
G1 X120.807 Y121.117 E8.22902
G1 X120.371 Y119.775 E8.29163
G1 X120.329 Y119.448 E8.30624
G1 X120.371 Y119.225 E8.31629
G1 X120.807 Y117.883 E8.3789
G1 X121.13 Y117.438 E8.40327
G1 X122.272 Y116.609 E8.46588
;WIDTH:0.451253
G1 X122.638 Y116.437 E8.4854
G1 X122.211 Y116.421 E8.50602
;WIDTH:0.42
G1 X83.789 Y116.421 E10.2102
;WIDTH:0.437647
G1 X83.206 Y116.43 E10.23737
G1 X83.728 Y116.609 E10.26308
;WIDTH:0.42
G1 X84.87 Y117.438 E10.32568
G1 X85.193 Y117.883 E10.35006
G1 X85.629 Y119.225 E10.41266
G1 X85.663 Y119.631 E10.43071
G1 X85.193 Y121.117 E10.49986
G1 X85.027 Y121.416 E10.51505
G1 X84.87 Y121.562 E10.52451
G1 X83.728 Y122.391 E10.58712
G1 X83.449 Y122.527 E10.60091
G1 X83.206 Y122.561 E10.61179
G1 X81.794 Y122.561 E10.6744
G1 X81.465 Y122.498 E10.68926
G1 X81.272 Y122.391 E10.69906
G1 X80.13 Y121.562 E10.76167
G1 X79.909 Y121.33 E10.77585
G1 X79.807 Y121.117 E10.78634
G1 X79.371 Y119.775 E10.84894
G1 X79.327 Y119.521 E10.86038
G1 X79.371 Y119.225 E10.87362
G1 X79.807 Y117.883 E10.93622
G1 X80.13 Y117.438 E10.96059
G1 X81.272 Y116.609 E11.0232
;WIDTH:0.451253
G1 X81.638 Y116.437 E11.04272
G1 X81.211 Y116.421 E11.06335
;WIDTH:0.42
G1 X76.155 Y116.421 E11.28758
G1 X75.9 Y116.384 E11.29902
G1 X75.658 Y116.269 E11.3109
G1 X75.43 Y116.047 E11.32501
G1 X75.28 Y115.686 E11.34237
G1 X75.266 Y115.532 E11.34921
G1 X75.266 Y49.437 E14.28086
;WIDTH:0.467608
G1 X75.283 Y49.355 E14.28507
G1 X75.652 Y49.346 F10800
;WIDTH:0.42
G1 F1800
G1 X75.726 Y49.12 E14.2956
G1 X75.928 Y48.954 E14.30721
G1 X76.155 Y48.903 E14.31753
G1 X123.845 Y48.903 E16.43278
G1 X124.072 Y48.954 E16.4431
G1 X124.274 Y49.12 E16.45471
G1 X124.378 Y49.437 E16.46949
G1 X124.378 Y64.282 E17.12797
G1 X124.362 Y64.413 E17.13383
G1 X124.261 Y64.615 E17.14384
G1 X124.127 Y64.735 E17.15178
G1 X123.845 Y64.816 E17.16483
G1 X119.378 Y64.816 E17.36294
G1 X119.378 Y67.684 E17.49019
G1 X123.845 Y67.684 E17.6883
G1 X124.127 Y67.765 E17.70135
G1 X124.315 Y67.967 E17.71357
G1 X124.378 Y68.218 E17.72504
G1 X124.378 Y115.532 E19.82366
G1 X124.301 Y115.809 E19.83641
G1 X124.216 Y115.915 E19.84242
G1 X123.937 Y116.058 E19.85633
G1 X123.845 Y116.066 E19.86043
G1 X76.155 Y116.066 E21.97568
G1 X75.93 Y116.016 E21.9859
G1 X75.72 Y115.841 E21.99802
G1 X75.63 Y115.624 E22.00844
G1 X75.622 Y115.532 E22.01254
G1 X75.633 Y49.403 E24.9457
G1 X75.978 Y49.437 F10800
;TYPE:External perimeter
G1 F1800
G1 X76.035 Y49.306 E24.95204
G1 X76.155 Y49.259 E24.95777
G1 X123.845 Y49.259 E27.07303
G1 X123.988 Y49.331 E27.08014
G1 X124.023 Y49.437 E27.08506
G1 X124.017 Y64.326 E27.74548
G1 X123.939 Y64.433 E27.75135
G1 X123.845 Y64.46 E27.7557
G1 X119.022 Y64.46 E27.96959
G1 X119.022 Y68.04 E28.12838
G1 X123.845 Y68.04 E28.34227
G1 X123.984 Y68.107 E28.3491
G1 X124.022 Y68.218 E28.35432
G1 X124.022 Y115.532 E30.45294
G1 X123.969 Y115.66 E30.45909
G1 X123.845 Y115.71 E30.46501
G1 X76.155 Y115.71 E32.58026
G1 X76.032 Y115.66 E32.58616
G1 X75.978 Y115.532 E32.59234
G1 X75.978 Y49.497 E35.52133
G1 X75.878 Y49.334 F10800
G1 E33.52133 F3000
G92 E0
G1 Z1.3 F10800
G1 X69.171 Y43.171
G1 Z.3
G1 E2 F3000
;TYPE:Perimeter
G1 F1800
G1 X71.13 Y43.171 E2.08686
G1 X71.794 Y43.149 E2.11636
;WIDTH:0.376015
G1 X73.206 Y43.149 E2.17122
;WIDTH:0.42
G1 X73.87 Y43.171 E2.20072
G1 X126.13 Y43.171 E4.51866
G1 X126.794 Y43.149 E4.54816
;WIDTH:0.376015
G1 X128.206 Y43.149 E4.60302
;WIDTH:0.42
G1 X128.87 Y43.171 E4.63252
G1 X130.829 Y43.171 E4.71938
G1 X130.829 Y43.834 E4.74878
G1 X130.829 Y44.782 E4.79084
;WIDTH:0.460876
G1 X130.808 Y45.064 E4.80483
;WIDTH:0.501753
G1 X130.788 Y45.347 E4.82027
;WIDTH:0.542629
G1 X130.767 Y45.629 E4.83716
;WIDTH:0.583506
G1 X130.747 Y45.911 E4.85548
;WIDTH:0.624382
G1 X130.727 Y46.194 E4.87525
G1 X130.62 Y45.932 E4.89502
;WIDTH:0.583506
G1 X130.513 Y45.669 E4.91335
;WIDTH:0.542629
G1 X130.407 Y45.407 E4.93023
;WIDTH:0.501753
G1 X130.3 Y45.145 E4.94567
;WIDTH:0.460876
G1 X130.193 Y44.883 E4.95967
;WIDTH:0.42
G1 X129.87 Y44.438 E4.98404
G1 X128.728 Y43.609 E5.04665
G1 X128.206 Y43.461 E5.07073
;WIDTH:0.376015
G1 X126.794 Y43.461 E5.1256
;WIDTH:0.383765
G1 X126.644 Y43.47 E5.1316
;WIDTH:0.42
G1 X126.272 Y43.609 E5.14921
G1 X125.13 Y44.438 E5.21182
G1 X124.807 Y44.883 E5.23619
G1 X124.371 Y46.225 E5.2988
G1 X124.328 Y46.534 E5.31262
G1 X124.371 Y46.775 E5.32347
G1 X124.606 Y47.5 E5.35727
;WIDTH:0.468273
G1 X124.694 Y47.8 E5.37302
;WIDTH:0.516546
G1 X124.781 Y48.1 E5.39065
;WIDTH:0.56482
G1 X124.869 Y48.4 E5.41016
G1 X124.99 Y48.538 E5.42164
;WIDTH:0.562826
G1 X125.048 Y48.567 E5.42563
;WIDTH:0.533593
G1 X125.105 Y48.596 E5.4294
;WIDTH:0.50436
G1 X125.39 Y48.777 E5.4479
;WIDTH:0.46218
G1 X125.674 Y48.957 E5.46463
;WIDTH:0.42
G1 X126.272 Y49.391 E5.49738
G1 X126.551 Y49.527 E5.51114
G1 X126.794 Y49.561 E5.52205
G1 X127.781 Y49.561 E5.56583
G1 X128.449 Y49.527 E5.59551
G1 X128.728 Y49.391 E5.60926
G1 X129.87 Y48.562 E5.67187
G1 X130.193 Y48.117 E5.69624
;WIDTH:0.457088
G1 X130.356 Y47.675 E5.71931
;WIDTH:0.494176
G1 X130.519 Y47.234 E5.74455
;WIDTH:0.531264
G1 X130.682 Y46.792 E5.77197
;WIDTH:0.560892
G1 X130.713 Y46.73 E5.77624
;WIDTH:0.590521
G1 X130.744 Y46.668 E5.78076
G1 X130.758 Y46.737 E5.78539
;WIDTH:0.560892
G1 X130.773 Y46.806 E5.78976
;WIDTH:0.531264
G1 X130.792 Y47.277 E5.81718
;WIDTH:0.494176
G1 X130.81 Y47.747 E5.84242
;WIDTH:0.457088
G1 X130.829 Y48.218 E5.86549
;WIDTH:0.42
G1 X130.829 Y151.782 E10.45906
;WIDTH:0.460876
G1 X130.808 Y152.064 E10.47306
;WIDTH:0.501753
G1 X130.788 Y152.347 E10.4885
;WIDTH:0.542629
G1 X130.767 Y152.629 E10.50538
;WIDTH:0.583506
G1 X130.747 Y152.911 E10.52371
;WIDTH:0.624382
G1 X130.727 Y153.194 E10.54347
G1 X130.62 Y152.932 E10.56324
;WIDTH:0.583506
G1 X130.513 Y152.669 E10.58157
;WIDTH:0.542629
G1 X130.407 Y152.407 E10.59845
;WIDTH:0.501753
G1 X130.3 Y152.145 E10.61389
;WIDTH:0.460876
G1 X130.193 Y151.883 E10.62789
;WIDTH:0.42
G1 X129.87 Y151.438 E10.65226
G1 X128.728 Y150.609 E10.71487
G1 X128.449 Y150.473 E10.72862
G1 X128.206 Y150.439 E10.73954
G1 X126.794 Y150.439 E10.80215
G1 X126.551 Y150.473 E10.81306
G1 X126.272 Y150.609 E10.82682
G1 X125.674 Y151.043 E10.85957
;WIDTH:0.467608
G1 X125.446 Y151.182 E10.87302
;WIDTH:0.515217
G1 X125.218 Y151.322 E10.88806
;WIDTH:0.562826
G1 X124.99 Y151.462 E10.90469
G1 X124.879 Y151.588 E10.9151
G1 X124.855 Y151.686 E10.9214
;WIDTH:0.515217
G1 X124.831 Y151.784 E10.9271
;WIDTH:0.467608
G1 X124.807 Y151.883 E10.9322
;WIDTH:0.42
G1 X124.371 Y153.225 E10.99481
G1 X124.328 Y153.466 E11.00565
G1 X124.371 Y153.775 E11.01948
G1 X124.807 Y155.117 E11.08208
G1 X125.13 Y155.562 E11.10646
G1 X126.272 Y156.391 E11.16906
G1 X126.794 Y156.539 E11.19315
;WIDTH:0.376015
G1 X128.206 Y156.539 E11.24801
;WIDTH:0.383765
G1 X128.356 Y156.53 E11.25402
;WIDTH:0.42
G1 X128.728 Y156.391 E11.27163
G1 X129.87 Y155.562 E11.33424
G1 X130.193 Y155.117 E11.35861
;WIDTH:0.457088
G1 X130.356 Y154.675 E11.38167
;WIDTH:0.494176
G1 X130.519 Y154.234 E11.40691
;WIDTH:0.531264
G1 X130.682 Y153.792 E11.43433
;WIDTH:0.560892
G1 X130.713 Y153.73 E11.4386
;WIDTH:0.590521
G1 X130.744 Y153.668 E11.44313
G1 X130.758 Y153.737 E11.44776
;WIDTH:0.560892
G1 X130.773 Y153.806 E11.45213
;WIDTH:0.531264
G1 X130.792 Y154.277 E11.47955
;WIDTH:0.494176
G1 X130.81 Y154.747 E11.50479
;WIDTH:0.457088
G1 X130.829 Y155.218 E11.52785
;WIDTH:0.42
G1 X130.829 Y156.829 E11.5993
G1 X128.87 Y156.829 E11.68616
G1 X128.206 Y156.851 E11.71566
;WIDTH:0.376015
G1 X126.794 Y156.851 E11.77053
;WIDTH:0.42
G1 X126.13 Y156.829 E11.80002
G1 X73.87 Y156.829 E14.11796
G1 X73.206 Y156.851 E14.14746
;WIDTH:0.376015
G1 X71.794 Y156.851 E14.20233
;WIDTH:0.42
G1 X71.13 Y156.829 E14.23183
G1 X69.171 Y156.829 E14.31869
G1 X69.171 Y155.218 E14.39014
;WIDTH:0.457088
G1 X69.19 Y154.747 E14.4132
;WIDTH:0.494176
G1 X69.208 Y154.277 E14.43844
;WIDTH:0.531265
G1 X69.227 Y153.806 E14.46586
;WIDTH:0.560894
G1 X69.242 Y153.737 E14.47023
;WIDTH:0.590523
G1 X69.256 Y153.668 E14.47486
G1 X69.287 Y153.73 E14.47939
;WIDTH:0.560894
G1 X69.318 Y153.792 E14.48366
;WIDTH:0.531265
G1 X69.481 Y154.234 E14.51108
;WIDTH:0.494176
G1 X69.644 Y154.675 E14.53632
;WIDTH:0.457088
G1 X69.807 Y155.117 E14.55938
;WIDTH:0.42
G1 X70.13 Y155.562 E14.58375
G1 X71.272 Y156.391 E14.64636
G1 X71.794 Y156.539 E14.67045
;WIDTH:0.376015
G1 X73.206 Y156.539 E14.72531
;WIDTH:0.383765
G1 X73.356 Y156.53 E14.73132
;WIDTH:0.42
G1 X73.728 Y156.391 E14.74893
G1 X74.87 Y155.562 E14.81153
G1 X75.193 Y155.117 E14.83591
G1 X75.629 Y153.775 E14.89851
G1 X75.672 Y153.466 E14.91234
G1 X75.629 Y153.225 E14.92318
G1 X75.394 Y152.5 E14.95698
;WIDTH:0.465128
G1 X75.305 Y152.201 E14.97258
;WIDTH:0.510256
G1 X75.216 Y151.902 E14.98994
;WIDTH:0.555385
G1 X75.127 Y151.603 E15.00905
;WIDTH:0.562825
G1 X75.01 Y151.462 E15.02046
G1 X74.952 Y151.433 E15.02446
;WIDTH:0.533592
G1 X74.895 Y151.404 E15.02822
;WIDTH:0.504359
G1 X74.61 Y151.223 E15.04672
;WIDTH:0.462179
G1 X74.326 Y151.043 E15.06345
;WIDTH:0.42
G1 X73.728 Y150.609 E15.0962
G1 X73.449 Y150.473 E15.10996
G1 X73.206 Y150.439 E15.12088
G1 X72.219 Y150.439 E15.16465
G1 X71.551 Y150.473 E15.19433
G1 X71.272 Y150.609 E15.20809
G1 X70.13 Y151.438 E15.27069
G1 X69.807 Y151.883 E15.29506
;WIDTH:0.460877
G1 X69.7 Y152.145 E15.30906
;WIDTH:0.501754
G1 X69.593 Y152.407 E15.3245
;WIDTH:0.542631
G1 X69.487 Y152.669 E15.34138
;WIDTH:0.583508
G1 X69.38 Y152.932 E15.35971
;WIDTH:0.624385
G1 X69.273 Y153.194 E15.37948
G1 X69.253 Y152.911 E15.39925
;WIDTH:0.583508
G1 X69.233 Y152.629 E15.41758
;WIDTH:0.542631
G1 X69.212 Y152.347 E15.43446
;WIDTH:0.501754
G1 X69.192 Y152.064 E15.4499
;WIDTH:0.460877
G1 X69.171 Y151.782 E15.4639
;WIDTH:0.42
G1 X69.171 Y48.218 E20.05747
;WIDTH:0.457088
G1 X69.19 Y47.747 E20.08053
;WIDTH:0.494176
G1 X69.208 Y47.277 E20.10577
;WIDTH:0.531265
G1 X69.227 Y46.806 E20.13319
;WIDTH:0.560894
G1 X69.242 Y46.737 E20.13756
;WIDTH:0.590523
G1 X69.256 Y46.668 E20.14219
G1 X69.287 Y46.73 E20.14672
;WIDTH:0.560894
G1 X69.318 Y46.792 E20.15099
;WIDTH:0.531265
G1 X69.481 Y47.234 E20.17841
;WIDTH:0.494176
G1 X69.644 Y47.675 E20.20365
;WIDTH:0.457088
G1 X69.807 Y48.117 E20.22671
;WIDTH:0.42
G1 X70.13 Y48.562 E20.25108
G1 X71.272 Y49.391 E20.31369
G1 X71.551 Y49.527 E20.32745
G1 X71.794 Y49.561 E20.33836
G1 X73.206 Y49.561 E20.40097
G1 X73.449 Y49.527 E20.41188
G1 X73.728 Y49.391 E20.42564
G1 X74.326 Y48.957 E20.45839
;WIDTH:0.467608
G1 X74.554 Y48.818 E20.47184
;WIDTH:0.515216
G1 X74.782 Y48.678 E20.48688
;WIDTH:0.562825
G1 X75.01 Y48.538 E20.50351
;WIDTH:0.564819
G1 X75.131 Y48.4 E20.51499
G1 X75.152 Y48.306 E20.52101
;WIDTH:0.517096
G1 X75.173 Y48.212 E20.52645
;WIDTH:0.469373
G1 X75.194 Y48.117 E20.53132
;WIDTH:0.421651
G1 X75.394 Y47.5 E20.56026
;WIDTH:0.42
G1 X75.629 Y46.775 E20.59407
G1 X75.672 Y46.534 E20.60491
G1 X75.629 Y46.225 E20.61874
G1 X75.193 Y44.883 E20.68134
G1 X74.87 Y44.438 E20.70571
G1 X73.728 Y43.609 E20.76832
G1 X73.206 Y43.461 E20.79241
;WIDTH:0.376015
G1 X71.794 Y43.461 E20.84727
;WIDTH:0.383765
G1 X71.644 Y43.47 E20.85328
;WIDTH:0.42
G1 X71.272 Y43.609 E20.87089
G1 X70.13 Y44.438 E20.93349
G1 X69.807 Y44.883 E20.95787
;WIDTH:0.460877
G1 X69.7 Y45.145 E20.97186
;WIDTH:0.501754
G1 X69.593 Y45.407 E20.9873
;WIDTH:0.542631
G1 X69.487 Y45.669 E21.00419
;WIDTH:0.583508
G1 X69.38 Y45.932 E21.02251
;WIDTH:0.624385
G1 X69.273 Y46.194 E21.04228
G1 X69.253 Y45.911 E21.06205
;WIDTH:0.583508
G1 X69.233 Y45.629 E21.08038
;WIDTH:0.542631
G1 X69.212 Y45.347 E21.09726
;WIDTH:0.501754
G1 X69.192 Y45.064 E21.1127
;WIDTH:0.460877
G1 X69.171 Y44.782 E21.1267
;WIDTH:0.42
G1 X69.171 Y43.231 E21.19549
G1 X68.816 Y42.816 F10800
G1 F1800
G1 X131.184 Y42.816 E23.96184
G1 X131.184 Y157.184 E29.03464
G1 X68.816 Y157.184 E31.80099
G1 X68.816 Y42.876 E36.87113
G1 X68.46 Y42.46 F10800
;TYPE:External perimeter
G1 F1800
G1 X131.54 Y42.46 E39.66903
G1 X131.54 Y157.54 E44.77338
G1 X68.46 Y157.54 E47.57127
G1 X68.46 Y42.52 E52.67296
G1 X68.835 Y42.6 F10800
G1 E50.67296 F3000
G92 E0
G1 Z1.3 F10800
G1 X124.703 Y46.585
G1 Z.3
G1 E2 F3000
;TYPE:Perimeter
G1 F1800
G1 X124.691 Y46.404 E2.00804
G1 X124.709 Y46.335 E2.01121
G1 X125.145 Y44.993 E2.07381
G1 X125.339 Y44.726 E2.08844
G1 X126.481 Y43.896 E2.15104
G1 X126.794 Y43.795 E2.16566
G1 X128.206 Y43.795 E2.22827
G1 X128.519 Y43.896 E2.24289
G1 X129.661 Y44.726 E2.3055
G1 X129.855 Y44.993 E2.32012
G1 X130.291 Y46.335 E2.38273
G1 X130.309 Y46.592 E2.39416
G1 X129.855 Y48.007 E2.46008
G1 X129.661 Y48.274 E2.4747
G1 X128.519 Y49.104 E2.53731
G1 X128.352 Y49.185 E2.54556
G1 X127.781 Y49.205 E2.57089
G1 X126.794 Y49.205 E2.61467
G1 X126.648 Y49.185 E2.62122
G1 X126.481 Y49.104 E2.62947
G1 X125.339 Y48.274 E2.69208
G1 X125.218 Y48.152 E2.69971
G1 X124.944 Y47.39 E2.73562
G1 X124.708 Y46.645 E2.77027
G1 X125.047 Y46.555 F10800
;TYPE:External perimeter
G1 F1800
G1 X125.047 Y46.445 E2.77515
G1 X125.483 Y45.103 E2.83776
G1 X125.548 Y45.014 E2.84263
G1 X126.69 Y44.184 E2.90524
G1 X126.794 Y44.15 E2.91011
